en/_assets/wiki/svg/move-page.svg

<svg xmlns="http://www.w3.org/2000/svg" xmlns:xlink="http://www.w3.org/1999/xlink" width="18" height="14" class="yc-icon" fill="currentColor" stroke="none" aria-hidden="true"><svg viewBox="0 0 18 14" xmlns="http://www.w3.org/2000/svg"><path d="M15.9062 2.25H11.0312L9.63477 0.878906C9.48242 0.726562 9.2793 0.625 9.05078 0.625H5.34375C4.6582 0.625 4.125 1.18359 4.125 1.84375V3.875H2.09375C1.4082 3.875 0.875 4.43359 0.875 5.09375V12.4062C0.875 13.0918 1.4082 13.625 2.09375 13.625H12.6562C13.3164 13.625 13.875 13.0918 13.875 12.4062V10.375H15.9062C16.5664 10.375 17.125 9.8418 17.125 9.15625V3.46875C17.125 2.80859 16.5664 2.25 15.9062 2.25ZM12.6562 12.4062H2.09375V5.09375H4.125V9.15625C4.125 9.8418 4.6582 10.375 5.34375 10.375H12.6562V12.4062ZM15.9062 9.15625H5.34375V1.84375H8.89844L10.2695 3.24023C10.4219 3.39258 10.625 3.46875 10.8535 3.46875H15.9062V9.15625Z"></path></svg></svg>

<svg xmlns="http://www.w3.org/2000/svg" width="18" height="14" fill="currentColor" aria-hidden="true" class="yc-icon">
    <svg xmlns="http://www.w3.org/2000/svg" viewBox="0 0 18 14">
        <path d="M15.906 2.25h-4.875L9.635.879A.827.827 0 0 0 9.05.625H5.344a1.22 1.22 0 0 0-1.219 1.219v2.031H2.094A1.22 1.22 0 0 0 .875 5.094v7.312c0 .686.533 1.219 1.219 1.219h10.562a1.22 1.22 0 0 0 1.219-1.219v-2.031h2.031a1.22 1.22 0 0 0 1.219-1.219V3.47c0-.66-.559-1.219-1.219-1.219Zm-3.25 10.156H2.094V5.094h2.031v4.062c0 .686.533 1.219 1.219 1.219h7.312v2.031Zm3.25-3.25H5.344V1.844h3.554L10.27 3.24a.804.804 0 0 0 .584.229h5.052v5.687Z"/>
    </svg>
</svg>
